X: 1
T: Andy McGann's
M: 4/4
L: 1/8
R: reel
K: Dmaj
dF F2 AGFE | D2 FD EB,B,B | ADFA BdAF | E3 F EFGA |
[1 dF F2 AGFE | D2 FD EB,B,B | ADFA BdAF | EA,CE D2 Bc :|
[2 d3 B c3 A | B2 Bd AGFE | D2 FA BdAF | EA,CE D2 FA ||
d2 fd edfd | B3 d AGFE | D2 FA BdAF | E3 F EFGA | 
d2 fd edfd | B3 d AGFE | D2 FA BdAF | EA,CE D2 FA |
d2 fd edfd | B3 d AGFE | D2 FA BdAF | E3 F E2 de | 
faba fd d2 | B3 d AGFE | D2 FA BdAF | EA,CE D4 |
